X:1
T:Title
%%score 1 { 2 | 3 }
L:1/8
Q:1/4=90
M:3/4
K:F
V:1 treble nm="Drawbar Organ, Soprano"
V:2 bass nm="Choir Pad, Levallois, 87.87 D"
V:3 bass 
V:1
 [A,C][A,F] [CA]3 [DB] | [B,G][CA] [A,F]2 [A,C]2 | [G,E][A,F] [DB]3 [CA] | [=B,D][B,D] [_B,G]4 | %4
w: By~John~Daniel~Patton,~1902 * * *||||
 [A,C][A,F] [CA]3 [DB] | [B,G][CA] [A,F]2 [A,C]2 | [A,F][CA] [Dc]3 [^CB] | [CA][B,G] [A,F]4 | %8
w: ||||
 [Ac][Ac] [Bc]3 [Bc] | [Bd][Bc] [Ac]2 [FA]2 | [Ac][Ac] [Bc]3 [Bc] | [Bd][Bc] [Ac]4 | %12
w: ||||
 [FA][Ac] [Af]3 [FA] | [Fc][F_e] [Fe]2 [Fd]2 | [Fd][Fd] [Fc]3 [FA] | [EA][CG] [CF]4- | %16
w: ||||
 [CF]2 z2 z2 |] %17
w: |
V:2
 z2 F,,C, .F,2 | z2 F,,C, F,2 | z2 B,,F, .B,2 | z2 C,4 | z2 F,,C, .F,2 | z2 F,,C, F,2 | z2 .F,4 | %7
 F,E, F,4 | FF EE CC | EE F2 C2 | FF EE CC | EE F4 | CC CC CC | CC[K:bass] B,2 B,2 | _A,A, =A,3 C | %15
 CB, A,4- | A,2 z2 z2 |] %17
V:3
 z2 z2 .F,,2 | z2 z2 F,,2 | z2 z2 .B,,2 | z2 C,,4 | z2 z2 .F,,2 | z2 z2 F,,2 | z2 .B,,4 | %7
 C,C, F,,4 | D,D, C,C, E,G, | C,C, F,2 F,2 | F,F, C,C, E,G, | C,C, F,4 | F,F, F,F, F,F, | %13
 A,,A,, B,,2 B,,2 | =B,,B,, C,3 C, | C,C, [F,,F,]4- | [F,,F,]2 z2 z2 |] %17

